X:904
T:Frank's Reel
R:reel
C:John McCusker, Scotland
Z:id:hn-reel-904
M:C|
L:1/8
K:A
AcBA F2AF | EFAB cABc | d3f ecAe | (3fga ec BdcB |
AcBA F2AF | EFAB cABc | d3f ecAc |1 BAGB AEFG :|2 BAGB Aefg ||
aAAg AAfA | effe cABc | dcdf ecAc | Bcde fefg |
aAAg AAfA | effe cABc | df~f2 ecAc | BAGB Aefg |
aAAg AAfA | effe cABc | d3f eAce | faec (3Bcd cB |
AcBA ~F3A | EFAB cABc | d3f ecAc | BAGB A2 (3EFG ||

